X:375
T:Young Tom Ennis
R:jig
Z:id:hn-jig-375
M:6/8
L:1/8
K:Ador
cBA BcB|AGE GAB|cBA Bed|BAA A2B|
cBA B/c/dB|AGE GAB|cde ded|1 BAA A2B:|2 BAA A2f||
|:gfe age|dBG GBd|gfe agf|efg a2f|
[1 gfe age|dBG GAB|cBA Bed|BAA A2f:|
[2 gab age|dBG GAB|cBA Bed|BAA A2B||

